dist/svg/static/inspection-large.svg

<svg xmlns="http://www.w3.org/2000/svg" width="48" height="48" viewBox="0 0 48 48"><g fill="none" stroke="currentColor"><g stroke-miterlimit="10"><path d="M39.5 29v-2.5h-9V29l1 2v5.5l-1 2v5c0 1.1.9 2 2 2h5c1.1 0 2-.9 2-2v-5l-1-2V31l1-2zM36.4 26.4l.1-11.9 3-3V7L37 2.5h-4L30.5 7v4.5l3 3v11.9"/></g><path d="M12.5 42.5v-25l-5-5v-6l4-4 1 1v4l1 1h5l1-1v-4l1-1 4 4v6l-5 5v25c0 1.7-1.3 3-3 3h-1c-1.7 0-3-1.3-3-3z"/></g></svg>

<?xml version="1.0" encoding="UTF-8" standalone="no"?>
<svg width="48px" height="48px" viewBox="0 0 48 48" version="1.1" xmlns="http://www.w3.org/2000/svg" xmlns:xlink="http://www.w3.org/1999/xlink">
    <!-- Generator: sketchtool 46.2 (44496) - http://www.bohemiancoding.com/sketch -->
    <title>inspection-large</title>
    <desc>Created with sketchtool.</desc>
    <defs></defs>
    <g id="icons-published" stroke="none" stroke-width="1" fill="none" fill-rule="evenodd">
        <g id="briefing" transform="translate(-3456.000000, -794.000000)"></g>
        <g id="inspection-large" stroke="#000000">
            <path d="M39.5,29 L39.5,26.5 L30.5,26.5 L30.5,29 L31.5,31 L31.5,36.5 L30.5,38.5 L30.5,43.5 C30.5,44.6 31.4,45.5 32.5,45.5 L37.5,45.5 C38.6,45.5 39.5,44.6 39.5,43.5 L39.5,38.5 L38.5,36.5 L38.5,31 L39.5,29 Z" id="Shape"></path>
            <polyline id="Path" points="36.4 26.4 36.5 14.5 39.5 11.5 39.5 7 37 2.5 33 2.5 30.5 7 30.5 11.5 33.5 14.5 33.5 26.4"></polyline>
            <path d="M12.5,42.5 L12.5,17.5 L7.5,12.5 L7.5,6.5 L11.5,2.5 L12.5,3.5 L12.5,7.5 L13.5,8.5 L18.5,8.5 L19.5,7.5 L19.5,3.5 L20.5,2.5 L24.5,6.5 L24.5,12.5 L19.5,17.5 L19.5,42.5 C19.5,44.2 18.2,45.5 16.5,45.5 L15.5,45.5 C13.8,45.5 12.5,44.2 12.5,42.5 Z" id="Shape"></path>
        </g>
    </g>
</svg>
